X: 30027
T: Off The Rails
R: reel
M: 4/4
K: Gmajor
|:[K:G]A,2 ((3CB,A,) A,2 ((3CB,A,)|A,2 (GA,) (FA,) (EA,)|A,2 ((3CB,A,) A,2 ((3CB,A,)|E(DC)(E D)CA,G,|
A,2 ((3CB,A,) A,2 ((3CB,A,)|A,2 (GA,) (FA,) (EA,)|G3 (F E2) GE|(GF)E(D E)DCG,:|
|:EAAE AAEA|FAAF AAFA|GBBG BBGB|FAAF AAFA|
EAAE AAEA|FAAF AAFA|GBBG BBGB|EEFF GG^GG:|
|:[K:D][E2A2] [EA][EA] ([E2A2] [FA]A)|B(cBA) E(FAF)|[E2A2] [EA][EA] ([E2A2] [FA]A)|c2 e2 !slide![c4f4]|
[E2A2] [EA][EA] ([E2A2] [FA]A)|B(cBA) E(FAF)|[E2A2] [EA][EA] ([E2A2] [FA]A)|!slide!a3 (f ec)BA:|
HA,4|

